assets/favoriteIconDisactive.svg

<?xml version="1.0" encoding="UTF-8" standalone="no"?>
<svg
   xmlns:dc="http://purl.org/dc/elements/1.1/"
   xmlns:cc="http://creativecommons.org/ns#"
   xmlns:rdf="http://www.w3.org/1999/02/22-rdf-syntax-ns#"
   xmlns:svg="http://www.w3.org/2000/svg"
   xmlns="http://www.w3.org/2000/svg"
   xmlns:sodipodi="http://sodipodi.sourceforge.net/DTD/sodipodi-0.dtd"
   xmlns:inkscape="http://www.inkscape.org/namespaces/inkscape"
   width="17.999887"
   height="16.113899"
   viewBox="0 0 17.999887 16.113899"
   version="1.1"
   id="svg4"
   sodipodi:docname="favoriteIconDisactive.svg"
   style="fill:none"
   inkscape:version="0.92.5 (2060ec1f9f, 2020-04-08)">
  <metadata
     id="metadata10">
    <rdf:RDF>
      <cc:Work
         rdf:about="">
        <dc:format>image/svg+xml</dc:format>
        <dc:type
           rdf:resource="http://purl.org/dc/dcmitype/StillImage" />
      </cc:Work>
    </rdf:RDF>
  </metadata>
  <defs
     id="defs8" />
  <sodipodi:namedview
     pagecolor="#ffffff"
     bordercolor="#666666"
     borderopacity="1"
     objecttolerance="10"
     gridtolerance="10"
     guidetolerance="10"
     inkscape:pageopacity="0"
     inkscape:pageshadow="2"
     inkscape:window-width="958"
     inkscape:window-height="536"
     id="namedview6"
     showgrid="false"
     inkscape:zoom="13.882353"
     inkscape:cx="8.9999504"
     inkscape:cy="7.6139"
     inkscape:window-x="62"
     inkscape:window-y="206"
     inkscape:window-maximized="0"
     inkscape:current-layer="svg4" />
  <path
     d="m 9.0512104,15 -0.41955,0.9077 0.44601,0.2062 0.43571,-0.2271 z M 1.2155904,7.22219 0.24247143,7.45249 Z M 9.0512104,5.5 8.0512304,5.50521 10.05125,5.5 Z M 16.67745,7.22219 15.73505,6.88765 Z M 9.0512104,15 c 0.41956,-0.9077 0.41976,-0.9076 0.41993,-0.9076 3e-5,10e-5 1.8e-4,10e-5 2.2e-4,10e-5 10e-5,10e-5 10e-5,10e-5 0,0 -2.1e-4,-10e-5 -8.2e-4,-3e-4 -0.00183,-8e-4 -0.002,-9e-4 -0.00559,-0.0026 -0.01072,-0.005 -0.01025,-0.0049 -0.02663,-0.0127 -0.04878,-0.0234 -0.04429,-0.0213 -0.11157,-0.0543 -0.19886,-0.0984 -0.17467,-0.0884 -0.42886,-0.2213 -0.73879,-0.3956 -0.62142,-0.3494 -1.45895,-0.861 -2.3261,-1.5092 -1.7794,-1.3301 -3.49022,-3.09346 -3.95757,-5.06821 l -1.94623897,0.4606 c 0.637065,2.69191 2.84404897,4.81741 4.70635897,6.20951 0.95371,0.713 1.868,1.2709 2.5432,1.6506 0.33838,0.1903 0.6187,0.3369 0.81645,0.437 0.09893,0.05 0.17734,0.0884 0.23219,0.1149 0.02742,0.0132 0.04897,0.0235 0.06426,0.0307 0.00765,0.0036 0.01373,0.0065 0.0182,0.0086 0.00223,10e-4 0.00407,0.0019 0.00549,0.0025 7.1e-4,4e-4 0.00132,6e-4 0.00183,9e-4 2.5e-4,10e-5 5.6e-4,2e-4 6.8e-4,3e-4 2.8e-4,10e-5 5.3e-4,2e-4 0.42008,-0.9075 z m -6.8625,-8.00811 c -0.27537,-1.16358 -0.27098,-2.47752 0.15637,-3.44229 0.20606,-0.46521 0.50356,-0.83691 0.91078,-1.09783 C 3.6637404,2.19042 4.2445804,2 5.0810304,2 V 0 c -1.14863,0 -2.11976,0.265188 -2.90417,0.767796 C 1.3918004,1.27082 0.85670943,1.97142 0.51644443,2.7396 c -0.665314,1.50199 -0.6085533,3.29914 -0.273973,4.71289 z M 5.0810304,2 c 0.78975,0 1.31914,0.21892 1.69239,0.50096 0.38597,0.29165 0.66605,0.69805 0.86659,1.15265 0.20086,0.45533 0.30621,0.92424 0.35981,1.28874 0.02642,0.17971 0.03934,0.32761 0.04562,0.42718 0.00313,0.04963 0.00457,0.08678 0.00524,0.10933 3.3e-4,0.01126 4.6e-4,0.01884 5.1e-4,0.02246 3e-5,0.00181 3e-5,0.00263 3e-5,0.00242 0,-10e-5 0,-4.7e-4 0,-0.00109 0,-3.1e-4 0,-6.8e-4 0,-0.00113 -10e-6,-2.2e-4 -10e-6,-6e-4 -10e-6,-7.1e-4 0,-4e-4 0,-8.1e-4 1,-8.1e-4 1.0000396,0 1.0000396,-4.5e-4 1.0000396,-9.1e-4 0,-1.8e-4 0,-6.7e-4 0,-0.00102 0,-7.2e-4 0,-0.00151 0,-0.00236 0,-0.00171 -10e-5,-0.00371 -10e-5,-0.00597 0,-0.00454 -10e-5,-0.01017 -2e-4,-0.01688 -10e-5,-0.0134 -5e-4,-0.0311 -0.0011,-0.05279 -0.0013,-0.04337 -0.0037,-0.1029 -0.0084,-0.17632 -0.0092,-0.14652 -0.0273,-0.35018 -0.06291,-0.59235 -0.07047,-0.47925 -0.21325,-1.13534 -0.50866,-1.80501 -0.29574,-0.6704 -0.76007,-1.389 -1.49071,-1.941103 C 7.2358004,0.343577 6.2763804,0 5.0810304,0 Z m 3.97018,3.5 C 10.05125,5.49479 10.05125,5.49518 10.05125,5.49556 c 0,10e-5 0,4.7e-4 0,6.7e-4 0,4.2e-4 0,7.7e-4 0,0.00105 0,5.7e-4 0,8.7e-4 0,9.2e-4 0,1e-4 0,-8.3e-4 0,-0.00276 0,-0.00385 10e-5,-0.01166 4e-4,-0.02316 5e-4,-0.02304 0.0017,-0.0607 0.0044,-0.11087 0.0056,-0.10065 0.0172,-0.24978 0.0416,-0.4308 0.0496,-0.36728 0.1483,-0.83923 0.3384,-1.29711 0.1904,-0.45852 0.4552,-0.86189 0.8146,-1.14801 C 11.59475,2.21158 12.08055,2 12.81195,2 V 0 c -1.1607,0 -2.0911,0.350925 -2.8069,0.920755 C 9.3045804,1.47839 8.8657304,2.20002 8.5889804,2.8665 c -0.27703,0.66712 -0.40902,1.32017 -0.47332,1.79664 -0.0325,0.24085 -0.04858,0.44328 -0.05656,0.58873 -0.004,0.07287 -0.00599,0.13189 -0.00696,0.17478 -4.9e-4,0.02145 -7.3e-4,0.03891 -8.4e-4,0.05209 -6e-5,0.00659 -8e-5,0.01211 -9e-5,0.01653 0,0.00222 0,0.00415 0,0.00581 0,8.3e-4 10e-6,0.00159 10e-6,0.00228 0,3.4e-4 0,8e-4 0,9.8e-4 10e-6,4.4e-4 10e-6,8.7e-4 0.99999,-0.00434 z M 12.81195,2 c 1.5132,0 2.3637,0.68798 2.8037,1.57546 0.4725,0.95291 0.5059,2.22345 0.1194,3.31219 l 1.8848,0.66908 c 0.541,-1.52414 0.5338,-3.36469 -0.2123,-4.86966 C 16.62895,1.11667 15.08285,0 12.81195,0 Z m 2.9231,4.88765 c -0.7349,2.07012 -2.4668,3.87115 -4.1171,5.19295 -0.8121,0.6504 -1.5763,1.1625 -2.1366696,1.5115 -0.27968,0.1741 -0.50719,0.3067 -0.66276,0.3948 -0.07775,0.0439 -0.13741,0.0767 -0.17651,0.0979 -0.01955,0.0106 -0.03395,0.0183 -0.04288,0.0231 -0.00447,0.0023 -0.00757,0.004 -0.00926,0.0049 -8.5e-4,4e-4 -0.00134,7e-4 -0.00148,8e-4 -7e-5,0 -5e-5,0 6e-5,-10e-5 5e-5,0 2e-4,-10e-5 2.3e-4,-10e-5 1.7e-4,-10e-5 3.6e-4,-2e-4 0.46253,0.8866 0.46217,0.8868 0.46241,0.8867 0.46268,0.8865 1.1e-4,0 4e-4,-2e-4 6.4e-4,-3e-4 4.7e-4,-3e-4 0.00103,-5e-4 0.00169,-9e-4 0.0013,-7e-4 0.00298,-0.0016 0.005,-0.0026 0.00406,-0.0022 0.00955,-0.0051 0.01643,-0.0087 0.01376,-0.0073 0.03308,-0.0177 0.05766,-0.031 0.04916,-0.0266 0.11936,-0.0653 0.20808,-0.1154 0.17737,-0.1004 0.4291596,-0.2473 0.7350596,-0.4377 0.6106,-0.3803 1.4424,-0.9376 2.3298,-1.6483 1.7486,-1.4005 3.8298,-3.4884 4.7516,-6.08487 z"
     id="path2"
     inkscape:connector-curvature="0"
     style="fill:#7f7d85" />
</svg>

<svg width="18" height="17" viewBox="0 0 18 17" fill="none" xmlns="http://www.w3.org/2000/svg">
<path d="M9.05126 15L8.63171 15.9077L9.07772 16.1139L9.51343 15.8868L9.05126 15ZM1.21564 7.22219L0.242521 7.45249L1.21564 7.22219ZM9.05126 5.5L8.05128 5.50521L10.0513 5.5L9.05126 5.5ZM16.6775 7.22219L15.7351 6.88765L16.6775 7.22219ZM9.05126 15C9.47082 14.0923 9.47102 14.0924 9.47119 14.0924C9.47122 14.0925 9.47137 14.0925 9.47141 14.0925C9.47151 14.0926 9.47151 14.0926 9.47141 14.0925C9.4712 14.0924 9.47059 14.0922 9.46958 14.0917C9.46758 14.0908 9.46399 14.0891 9.45886 14.0867C9.44861 14.0818 9.43223 14.074 9.41008 14.0633C9.36579 14.042 9.29851 14.009 9.21122 13.9649C9.03655 13.8765 8.78236 13.7436 8.47243 13.5693C7.85101 13.2199 7.01348 12.7083 6.14633 12.0601C4.36693 10.73 2.65611 8.96664 2.18876 6.99189L0.242521 7.45249C0.879586 10.1444 3.08657 12.2699 4.94888 13.662C5.90259 14.375 6.81688 14.9329 7.49208 15.3126C7.83046 15.5029 8.11078 15.6495 8.30853 15.7496C8.40746 15.7996 8.48587 15.838 8.54072 15.8645C8.56814 15.8777 8.58969 15.888 8.60498 15.8952C8.61263 15.8988 8.61871 15.9017 8.62318 15.9038C8.62541 15.9048 8.62725 15.9057 8.62867 15.9063C8.62938 15.9067 8.62999 15.9069 8.6305 15.9072C8.63075 15.9073 8.63106 15.9074 8.63118 15.9075C8.63146 15.9076 8.63171 15.9077 9.05126 15ZM2.18876 6.99189C1.91339 5.82831 1.91778 4.51437 2.34513 3.5496C2.55119 3.08439 2.84869 2.71269 3.25591 2.45177C3.66379 2.19042 4.24463 2 5.08108 2V0C3.93245 0 2.96132 0.265188 2.17691 0.767796C1.39185 1.27082 0.856759 1.97142 0.516494 2.7396C-0.14882 4.24159 -0.0920593 6.03874 0.242521 7.45249L2.18876 6.99189ZM5.08108 2C5.87083 2 6.40022 2.21892 6.77347 2.50096C7.15944 2.79261 7.43952 3.19901 7.64006 3.65361C7.84092 4.10894 7.94627 4.57785 7.99987 4.94235C8.02629 5.12206 8.03921 5.26996 8.04549 5.36953C8.04862 5.41916 8.05006 5.45631 8.05073 5.47886C8.05106 5.49012 8.05119 5.4977 8.05124 5.50132C8.05127 5.50313 8.05127 5.50395 8.05127 5.50374C8.05127 5.50364 8.05127 5.50327 8.05127 5.50265C8.05127 5.50234 8.05127 5.50197 8.05127 5.50152C8.05126 5.5013 8.05126 5.50092 8.05126 5.50081C8.05126 5.50041 8.05126 5.5 9.05126 5.5C10.0513 5.5 10.0513 5.49955 10.0513 5.49909C10.0513 5.49891 10.0513 5.49842 10.0513 5.49807C10.0513 5.49735 10.0513 5.49656 10.0513 5.49571C10.0513 5.494 10.0512 5.492 10.0512 5.48974C10.0512 5.4852 10.0511 5.47957 10.051 5.47286C10.0509 5.45946 10.0505 5.44176 10.0499 5.42007C10.0486 5.3767 10.0462 5.31717 10.0415 5.24375C10.0323 5.09723 10.0142 4.89357 9.97859 4.6514C9.90812 4.17215 9.76534 3.51606 9.46993 2.84639C9.17419 2.17599 8.70986 1.45739 7.97922 0.905287C7.23585 0.343577 6.27643 0 5.08108 0V2ZM9.05126 5.5C10.0513 5.49479 10.0513 5.49518 10.0513 5.49556C10.0513 5.49566 10.0513 5.49603 10.0513 5.49623C10.0513 5.49665 10.0513 5.497 10.0513 5.49728C10.0513 5.49785 10.0513 5.49815 10.0513 5.4982C10.0513 5.4983 10.0513 5.49737 10.0513 5.49544C10.0513 5.49159 10.0514 5.48378 10.0517 5.47228C10.0522 5.44924 10.0534 5.41158 10.0561 5.36141C10.0617 5.26076 10.0733 5.11163 10.0977 4.93061C10.1473 4.56333 10.246 4.09138 10.4361 3.6335C10.6265 3.17498 10.8913 2.77161 11.2507 2.48549C11.5948 2.21158 12.0806 2 12.812 2V0C11.6513 0 10.7209 0.350925 10.0051 0.920755C9.30463 1.47839 8.86578 2.20002 8.58903 2.8665C8.312 3.53362 8.18001 4.18667 8.11571 4.66314C8.08321 4.90399 8.06713 5.10642 8.05915 5.25187C8.05515 5.32474 8.05316 5.38376 8.05219 5.42665C8.0517 5.4481 8.05146 5.46556 8.05135 5.47874C8.05129 5.48533 8.05127 5.49085 8.05126 5.49527C8.05126 5.49749 8.05126 5.49942 8.05126 5.50108C8.05126 5.50191 8.05127 5.50267 8.05127 5.50336C8.05127 5.5037 8.05127 5.50416 8.05127 5.50434C8.05128 5.50478 8.05128 5.50521 9.05126 5.5ZM12.812 2C14.3252 2 15.1757 2.68798 15.6157 3.57546C16.0882 4.52837 16.1216 5.79891 15.7351 6.88765L17.6199 7.55673C18.1609 6.03259 18.1537 4.19204 17.4076 2.68707C16.629 1.11667 15.0829 0 12.812 0V2ZM15.7351 6.88765C15.0002 8.95777 13.2683 10.7588 11.618 12.0806C10.8059 12.731 10.0417 13.2431 9.48133 13.5921C9.20165 13.7662 8.97414 13.8988 8.81857 13.9869C8.74082 14.0308 8.68116 14.0636 8.64206 14.0848C8.62251 14.0954 8.60811 14.1031 8.59918 14.1079C8.59471 14.1102 8.59161 14.1119 8.58992 14.1128C8.58907 14.1132 8.58858 14.1135 8.58844 14.1136C8.58837 14.1136 8.58839 14.1136 8.5885 14.1135C8.58855 14.1135 8.5887 14.1134 8.58873 14.1134C8.5889 14.1133 8.58909 14.1132 9.05126 15C9.51343 15.8868 9.51367 15.8867 9.51394 15.8865C9.51405 15.8865 9.51434 15.8863 9.51458 15.8862C9.51505 15.8859 9.51561 15.8857 9.51627 15.8853C9.51757 15.8846 9.51925 15.8837 9.52127 15.8827C9.52533 15.8805 9.53082 15.8776 9.5377 15.874C9.55146 15.8667 9.57078 15.8563 9.59536 15.843C9.64452 15.8164 9.71472 15.7777 9.80344 15.7276C9.98081 15.6272 10.2326 15.4803 10.5385 15.2899C11.1491 14.9096 11.9809 14.3523 12.8683 13.6416C14.6169 12.2411 16.6981 10.1532 17.6199 7.55673L15.7351 6.88765Z" fill="#7F7D85"/>
</svg>
